X:5991
T:Gan Ainm
R:Reel
S:
H:
N:I'm 99% sure this was played in B flat, and not just 'tuned up' (all part of the same session)
D:Conor Tully & Paddy Carty (Session Tape)
Z:Adrian Scahill
M:4/4
L:1/8
K:Bb
B2FB DBFB|B2dB ABcA|B2FB DBcd|1 egfe dBcA :|2 egfe dBB2||\
f3g fdBd|f2df ecA2|fBB2 gBB2|fgfe dBB2|\
f3g fdBd|f2df edc2|egfd edcb|agfe dBcA||
%
%
%
%
%
%
%
%
%
%
%
% These tunes have been compiled and transcribed by Adrian Scahill. 
% They are free for personal use only, and may not be published 
% or reproduced for profit. 
% 
% This file may not be included on a web page for download without
% permission from me. 
%
% I have not generally included ornamentation or variations - and each
% tune is notated as closely as possible to the player's performance. 
% Following from this I have not tried to 'correct' what may be variations,
% wayward versions, instrument-specific quirks etc. 
% 
% I have listed the sources that I know or remember, and have included
% a discography where relevant. 
%
% Compiled: October 1999.
%
% Questions, Info: Email - adrian@continuo.freeserve.co.uk
% 
% 


